public/scale.svg

<svg width="46" height="69" viewBox="0 0 46 69" fill="none" xmlns="http://www.w3.org/2000/svg">
<path d="M36.0518 64.6422C36.5477 64.6476 37.0363 64.5226 37.4688 64.2798C38.5467 63.6695 39.1445 62.3826 39.1445 60.6578V26.1428C39.0732 24.3829 38.5903 22.6642 37.7343 21.1248C36.8784 19.5854 35.6733 18.2683 34.216 17.2792L12.2625 4.08201C10.8663 3.24283 9.52058 3.10684 8.47585 3.69808C7.39795 4.30922 6.80176 5.59535 6.80176 7.32015V41.8326C6.87296 43.5928 7.35604 45.3117 8.21214 46.8512C9.06823 48.3908 10.2735 49.708 11.7311 50.6971L33.6804 63.8926C34.3887 64.3519 35.2082 64.6109 36.0518 64.6422ZM9.89534 4.3739C10.5492 4.40541 11.1826 4.61189 11.7294 4.97177L33.6804 18.1689C34.9826 19.0681 36.0597 20.2557 36.8278 21.6394C37.5959 23.023 38.0343 24.5653 38.1089 26.1461V60.6594C38.1089 61.9961 37.7009 62.9622 36.9589 63.3834C36.5095 63.5705 36.0184 63.6348 35.536 63.5697C35.0536 63.5046 34.5972 63.3124 34.2135 63.0128L12.2625 49.8148C10.9604 48.9157 9.88344 47.7282 9.11533 46.3447C8.34721 44.9612 7.90872 43.4191 7.83405 41.8384V7.32263C7.83405 5.98592 8.24284 5.01987 8.9841 4.60028C9.26298 4.4458 9.57738 4.3669 9.89615 4.37141L9.89534 4.3739Z" fill="#0D034A"/>
<path opacity="0.43" d="M42.3963 61.3038C42.8923 61.3089 43.3809 61.1836 43.8133 60.9406C44.8912 60.3303 45.489 59.0433 45.489 57.3185V22.806C45.4178 21.0457 44.9346 19.3266 44.0784 17.7869C43.2222 16.2472 42.0167 14.9299 40.5589 13.9408L18.6063 0.746071C17.2092 -0.0931079 15.8643 -0.229099 14.8196 0.362141C13.7417 0.972453 13.1455 2.25941 13.1455 3.98421V38.4983C13.2167 40.2584 13.6996 41.9772 14.5556 43.5168C15.4115 45.0563 16.6166 46.3736 18.074 47.3628L40.0274 60.56C40.7356 61.0169 41.5541 61.2739 42.3963 61.3038ZM16.2391 1.03547C16.893 1.06678 17.5264 1.27327 18.0732 1.63335L40.0274 14.8305C41.3295 15.7296 42.4066 16.9171 43.1747 18.3006C43.9428 19.6841 44.3813 21.2262 44.4559 22.8069V57.3193C44.4559 58.6561 44.0472 59.6238 43.3051 60.0434C42.8554 60.2302 42.3642 60.2943 41.8817 60.229C41.3992 60.1638 40.9427 59.9715 40.5589 59.6719L18.6055 46.4747C17.3031 45.5754 16.226 44.3877 15.4579 43.0039C14.6897 41.6201 14.2514 40.0777 14.177 38.4967V3.99001C14.177 2.6533 14.5849 1.68559 15.327 1.266C15.6056 1.11073 15.9201 1.03124 16.2391 1.03547Z" fill="#0D034A"/>
<path d="M28.0016 21.741C29.379 22.6877 30.5184 23.9407 31.3302 25.4018C32.142 26.8628 32.6042 28.4921 32.6805 30.1619V64.6727C32.6805 67.779 30.5935 69.0253 28.0016 67.468L6.04817 54.2708C4.67089 53.3243 3.53174 52.0714 2.72007 50.6105C1.9084 49.1496 1.44632 47.5204 1.37012 45.8509V11.3409C1.37012 8.23458 3.45707 6.98825 6.04817 8.54554L28.0016 21.741Z" fill="white"/>
<path d="M30.1058 68.9986C30.6602 69.0033 31.2062 68.863 31.6895 68.5914C32.8802 67.9181 33.536 66.5266 33.536 64.675V30.1633C33.4619 28.3455 32.9625 26.5703 32.0779 24.9806C31.1933 23.3908 29.9481 22.0307 28.4425 21.0095L6.48577 7.81478C4.98086 6.9101 3.51495 6.77244 2.35828 7.4267C1.16762 8.10004 0.511719 9.49148 0.511719 11.344V45.8523C0.585753 47.67 1.0851 49.4449 1.96957 51.0346C2.85403 52.6242 4.09896 53.9842 5.60439 55.0053L27.5612 68.205C28.322 68.6949 29.2014 68.9691 30.1058 68.9986ZM27.5612 22.4789C28.8154 23.3459 29.8526 24.4907 30.5922 25.824C31.3318 27.1574 31.7539 28.6435 31.8255 30.1666V64.675C31.8255 65.8666 31.469 66.748 30.8471 67.103C30.4493 67.2574 30.0179 67.305 29.596 67.2408C29.1741 67.1767 28.7764 67.003 28.4425 66.7373L6.48577 53.5401C5.23165 52.673 4.19447 51.5283 3.45499 50.1949C2.71551 48.8615 2.2937 47.3754 2.2223 45.8523V11.3431C2.2223 10.1515 2.57883 9.27008 3.20069 8.91434C3.59848 8.75977 4.02985 8.71219 4.45176 8.77635C4.87367 8.84052 5.27134 9.01418 5.6052 9.28003L27.5612 22.4755V22.4789Z" fill="#27292B"/>
<path d="M11.8658 33.0229C11.8658 32.7369 11.8575 32.4491 11.8658 32.1755C11.962 29.381 13.4611 28.1587 15.5862 29.148C15.8233 29.2583 16.0679 29.4324 16.3084 29.5667C16.514 29.6812 16.6666 29.5891 16.7064 29.3462C16.7268 29.0663 16.6452 28.7885 16.4767 28.5642C16.4052 28.468 16.3188 28.384 16.2205 28.3154C14.5191 27.1843 13.1352 27.1454 12.0747 28.1753C11.3605 28.9885 10.9686 30.035 10.9728 31.1174C10.9653 31.2202 10.9661 31.3098 10.8476 31.2443C9.56155 30.5344 8.47457 30.5145 7.58987 31.1447C6.54597 31.8911 6.0352 33.2883 6.07003 35.3315C6.28479 38.9449 7.73163 42.3753 10.1693 45.0509C10.533 45.4215 10.929 45.7589 11.3525 46.0593C14.6139 48.3225 17.8777 50.5725 21.144 52.8092C22.6464 53.8399 23.8984 53.9062 24.9108 53.1583C25.9439 52.3954 26.4721 50.9981 26.4389 48.9549C26.2441 45.3224 24.7983 41.8693 22.3471 39.1816C22.1448 38.9742 21.9317 38.7777 21.7086 38.5929C21.6518 38.5507 21.6061 38.4954 21.5752 38.4317C21.5443 38.3681 21.5292 38.2979 21.5312 38.2272C21.4248 36.9617 21.1415 35.7173 20.6896 34.5305C20.6177 34.2742 20.4512 34.0549 20.2237 33.9169C20.1919 33.8934 20.1545 33.8785 20.1152 33.8738C20.076 33.869 20.0362 33.8745 19.9997 33.8897C19.9632 33.9049 19.9313 33.9293 19.9071 33.9605C19.8828 33.9917 19.867 34.0287 19.8613 34.0678C19.8164 34.2852 19.8435 34.5114 19.9384 34.7121C20.2672 35.5824 20.4866 36.4902 20.5918 37.4145C20.6249 37.7263 20.6349 38.0265 20.6473 38.3267C20.6475 38.5324 20.6957 38.7351 20.7881 38.9189C20.8805 39.1026 21.0146 39.2621 21.1796 39.3848C22.7202 40.6031 23.8908 42.2267 24.5601 44.0733C26.2242 48.1481 25.6944 51.8033 23.3918 52.2511C22.9835 52.2984 22.5699 52.2632 22.1755 52.1475C21.7811 52.0318 21.414 51.8381 21.0959 51.5778C17.8622 49.3538 14.636 47.1439 11.4056 44.8983C9.60065 43.4896 8.28431 41.5489 7.6429 39.3508C6.41991 35.8448 6.89666 32.8065 8.75313 32.1688C9.17846 32.0576 9.62373 32.0459 10.0543 32.1348C10.4849 32.2237 10.8891 32.4107 11.2356 32.6813C11.4413 32.8082 11.6411 32.8977 11.8658 33.0229Z" fill="#27292B" stroke="#27292B" stroke-width="0.2"/>
<path d="M14.063 39.8045L15.9179 41.0815V39.8485L14.0713 38.5764V36.918L11.7295 37.6336L14.0638 41.5617L14.063 39.8045Z" fill="#27292B" stroke="#27292B" stroke-width="0.2"/>
<path d="M14.596 44.5941L15.9227 43.759L15.2552 42.419L13.9533 43.2814L13.0113 41.3477L12.5967 44.8976L15.4733 46.333L14.596 44.5941Z" fill="#27292B" stroke="#27292B" stroke-width="0.2"/>
<path d="M12.5977 31.6016C12.7353 32.9773 12.8696 34.3198 13.0081 35.6955L13.9277 35.0752L15.2487 37.7669L15.903 37.334L14.5994 34.7103L15.4958 34.1481L12.5977 31.6016Z" fill="#27292B" stroke="#27292B" stroke-width="0.2"/>
<path d="M19.3115 42.861L21.6408 46.7807V45.0311L23.5057 46.3147V45.0709L21.6508 43.7939V42.1445L19.3115 42.861Z" fill="#27292B" stroke="#27292B" stroke-width="0.2"/>
<path d="M18.0257 40.3158C17.8051 40.1641 17.5854 40.0098 17.3623 39.8614C17.1898 39.7445 17.1028 39.7951 17.1011 40.0272C17.0978 40.6154 17.0978 41.2061 17.1011 41.7993C17.0955 41.9045 17.1172 42.0094 17.1642 42.1037C17.2111 42.198 17.2817 42.2785 17.369 42.3375C17.8112 42.6471 18.2562 42.9533 18.704 43.2563C18.8765 43.374 18.9628 43.3193 18.9636 43.0904C18.9664 42.5022 18.9664 41.9115 18.9636 41.3184C18.9705 41.2136 18.9495 41.1089 18.9028 41.015C18.856 40.921 18.7851 40.8411 18.6974 40.7835C18.4743 40.621 18.2504 40.4684 18.0257 40.3158Z" fill="#27292B" stroke="#27292B" stroke-width="0.2"/>
<path d="M18.5171 31.8367C18.7517 32.0026 18.9317 31.9487 18.9922 31.7264C19.0149 31.5858 19.0095 31.4422 18.9763 31.3037C18.9432 31.1652 18.8829 31.0346 18.799 30.9196C18.4032 30.3416 17.9513 29.8042 17.4499 29.315C17.2268 29.1003 17.007 29.1492 16.9457 29.4046C16.9226 29.5677 16.9356 29.734 16.9837 29.8916C17.0319 30.0492 17.114 30.1943 17.2243 30.3167C17.6432 30.759 18.0348 31.2265 18.3968 31.7165C18.4328 31.7604 18.4731 31.8007 18.5171 31.8367Z" fill="#27292B" stroke="#27292B" stroke-width="0.2"/>
</svg>

<svg xmlns="http://www.w3.org/2000/svg" width="46" height="69" fill="none" viewBox="0 0 46 69"><path fill="#0d034a" d="M36.052 64.642c.496.006.984-.12 1.417-.362 1.078-.61 1.675-1.897 1.675-3.622V26.143a11.26 11.26 0 0 0-4.928-8.864L12.263 4.082c-1.397-.84-2.742-.975-3.787-.384-1.078.611-1.674 1.897-1.674 3.622v34.513a11.26 11.26 0 0 0 4.93 8.864L33.68 63.893c.709.459 1.528.718 2.372.75M9.895 4.374a3.66 3.66 0 0 1 1.834.598L33.68 18.169a10.28 10.28 0 0 1 4.429 7.977V60.66c0 1.337-.408 2.303-1.15 2.724a2.75 2.75 0 0 1-2.745-.37L12.263 49.815a10.28 10.28 0 0 1-4.429-7.977V7.323c0-1.337.409-2.303 1.15-2.723.279-.154.593-.233.912-.229z"/><path fill="#0d034a" d="M42.396 61.304c.496.005.985-.12 1.417-.363 1.078-.61 1.676-1.898 1.676-3.623V22.807a11.26 11.26 0 0 0-4.93-8.865L18.606.746c-1.397-.84-2.742-.975-3.786-.384-1.078.61-1.674 1.897-1.674 3.622v34.514a11.26 11.26 0 0 0 4.928 8.865L40.027 60.56a4.7 4.7 0 0 0 2.37.744M16.24 1.035a3.65 3.65 0 0 1 1.834.598l21.954 13.198a10.28 10.28 0 0 1 4.429 7.976v34.512c0 1.337-.409 2.305-1.15 2.724a2.75 2.75 0 0 1-2.747-.371L18.606 46.475a10.28 10.28 0 0 1-4.429-7.978V3.99c0-1.337.408-2.304 1.15-2.724.279-.155.593-.235.912-.23" opacity=".43"/><path fill="#fff" d="M28.002 21.741a10.82 10.82 0 0 1 4.679 8.42v34.512c0 3.106-2.087 4.352-4.68 2.795L6.049 54.271a10.81 10.81 0 0 1-4.678-8.42V11.34c0-3.106 2.087-4.353 4.678-2.795z"/><path fill="#27292b" d="M30.106 68.999c.554.004 1.1-.136 1.583-.408 1.191-.673 1.847-2.064 1.847-3.916V30.163a11.63 11.63 0 0 0-5.094-9.154L6.486 7.815C4.98 6.91 3.515 6.772 2.358 7.427 1.168 8.1.512 9.49.512 11.344v34.508a11.63 11.63 0 0 0 5.092 9.153l21.957 13.2c.761.49 1.64.764 2.545.794m-2.545-46.52a9.91 9.91 0 0 1 4.265 7.688v34.508c0 1.192-.357 2.073-.979 2.428a2.44 2.44 0 0 1-2.405-.366L6.486 53.54a9.91 9.91 0 0 1-4.264-7.688V11.343c0-1.191.357-2.073.979-2.429a2.44 2.44 0 0 1 2.404.366l21.956 13.196z"/><path fill="#27292b" stroke="#27292b" stroke-width=".2" d="M11.866 33.023c0-.286-.008-.574 0-.848.096-2.794 1.595-4.016 3.72-3.027.237.11.482.284.722.419.206.114.359.022.398-.22a1.16 1.16 0 0 0-.485-1.032c-1.702-1.13-3.086-1.17-4.146-.14a4.43 4.43 0 0 0-1.102 2.942c-.008.103-.007.193-.125.127-1.286-.71-2.373-.73-3.258-.1-1.044.747-1.555 2.144-1.52 4.188a15.83 15.83 0 0 0 4.1 9.719q.546.556 1.182 1.008 4.893 3.396 9.792 6.75c1.502 1.03 2.754 1.097 3.767.35 1.033-.764 1.561-2.16 1.528-4.204a15.76 15.76 0 0 0-4.092-9.773 8 8 0 0 0-.638-.59.44.44 0 0 1-.178-.365 13.6 13.6 0 0 0-.841-3.696 1.05 1.05 0 0 0-.466-.614.228.228 0 0 0-.363.15c-.045.218-.018.444.077.645.33.87.549 1.778.654 2.702.033.312.043.612.055.913a1.32 1.32 0 0 0 .533 1.058 10.57 10.57 0 0 1 3.38 4.688c1.664 4.075 1.134 7.73-1.168 8.178a3.07 3.07 0 0 1-2.296-.673c-3.234-2.224-6.46-4.434-9.69-6.68a10.9 10.9 0 0 1-3.763-5.547c-1.223-3.506-.746-6.544 1.11-7.182a2.86 2.86 0 0 1 2.483.512c.205.127.405.217.63.342Z"/><path fill="#27292b" stroke="#27292b" stroke-width=".2" d="m14.063 39.805 1.855 1.276v-1.233l-1.847-1.272v-1.658l-2.341.716 2.334 3.928zM14.596 44.594l1.327-.835-.668-1.34-1.302.862-.942-1.933-.414 3.55 2.876 1.435zM12.598 31.602l.41 4.094.92-.62 1.32 2.69.655-.432-1.304-2.624.897-.562zM19.312 42.861l2.329 3.92v-1.75l1.865 1.284V45.07l-1.855-1.277v-1.65zM18.026 40.316q-.329-.23-.664-.455c-.172-.116-.26-.066-.26.166q-.006.883 0 1.772a.61.61 0 0 0 .267.538q.663.465 1.335.92.258.176.26-.167.003-.882 0-1.772a.6.6 0 0 0-.267-.535 25 25 0 0 0-.671-.467ZM18.517 31.837c.235.166.415.112.475-.11a1.08 1.08 0 0 0-.193-.807 10.6 10.6 0 0 0-1.35-1.605c-.222-.215-.442-.166-.503.09a1.13 1.13 0 0 0 .278.912q.63.664 1.173 1.4a1 1 0 0 0 .12.12Z"/></svg>
